Image/logo.svg

<svg width="283" height="283" viewBox="0 0 283 283" fill="none" xmlns="http://www.w3.org/2000/svg">
<path d="M21.0082 186.157C24.5846 184.18 25.9773 187.405 23.6595 188.062C18.5353 189.514 20.1429 196.523 25.2682 197.873C28.946 198.842 39.0433 197.514 41.5467 196.884C42.046 196.664 46.927 196.464 51.9534 196.412C56.9798 196.36 64.9809 198.518 67.1132 198.83C69.2459 199.142 72.7238 199.766 74.8811 199.792C77.0392 199.818 80.5809 198.44 80.6447 198.427C80.7077 198.414 80.8853 198.219 81.3046 197.725C81.7235 197.231 83.1068 196.256 83.2083 196.269C83.3101 196.282 83.4623 196.633 83.5384 197.257C83.6145 197.881 83.2847 198.323 83.2847 198.323C83.2847 198.323 85.2522 197.803 85.2522 198.114C85.2522 198.427 84.7318 199.337 84.6807 199.428C84.6303 199.519 86.7119 201.118 87.2323 201.859C87.7527 202.6 87.5498 202.561 87.702 203.432C87.8542 204.303 89.1871 206.513 89.2378 206.734C89.2889 206.955 89.2505 206.994 89.0349 207.176C88.8189 207.358 88.8573 207.254 88.6033 207.501C88.3492 207.748 87.4352 208.879 86.3695 209.399C85.3029 209.919 85.1254 209.477 84.2875 208.983C83.45 208.489 79.5405 209.113 78.8041 209.685C78.2019 210.153 76.9027 211.422 76.4502 211.868L76.2909 212.025C76.2909 212.025 76.0876 212.338 75.8343 213.534C75.5802 214.729 75.6817 215.925 75.9865 217.902C76.2909 219.878 79.464 224.453 79.9464 224.843C80.4287 225.233 81.2919 225.649 81.9011 226.326C82.5103 227.002 81.9772 227.417 81.3169 227.626C80.6574 227.833 79.0324 227.495 78.5247 227.287C78.0173 227.079 77.7633 225.624 76.0876 224.428C74.4122 223.232 71.7722 221.047 71.3659 219.955C70.9597 218.863 70.6042 215.848 70.6042 215.848C70.6042 215.848 70.2487 216.679 69.1318 218.083C68.0145 219.487 65.4252 221.827 65.4252 222.816C65.4252 223.803 65.73 225.415 66.0855 226.039C66.4406 226.663 66.9487 226.715 67.4053 226.871L67.6375 226.948C68.0291 227.08 68.438 227.253 68.7762 227.86C69.1825 228.587 68.7255 228.796 67.9641 228.796C67.2027 228.796 66.1362 229.16 64.816 228.64C63.4962 228.119 61.0591 223.7 60.5006 222.607C59.9422 221.516 61.1605 219.488 61.6686 218.551C62.1759 217.615 62.887 216.368 62.887 216.368C62.887 216.368 58.2161 216.42 55.779 215.796C53.3419 215.172 50.5448 214.964 50.5448 214.964C50.5448 214.964 50.3415 216.108 49.9356 217.772C49.5293 219.436 47.6 221.36 47.3966 221.984C47.1937 222.608 48.5139 223.908 49.2753 224.74C50.0367 225.572 51.5602 226.144 52.1694 226.56C52.7786 226.976 53.4892 227.652 53.083 228.484C52.6767 229.316 52.3216 228.588 51.6109 228.744C50.8999 228.9 49.1231 229.16 47.9047 228.9C46.6861 228.64 46.6352 227.08 45.0106 225.676C43.3859 224.272 41.7104 222.712 41.8626 221.776C42.0149 220.84 42.2182 216.628 42.1674 216.368C42.1166 216.108 40.0348 217.824 37.8009 218.916C35.567 220.008 30.9978 221.126 30.7184 221.88C30.4391 222.634 29.5254 226.119 29.6776 227.158C29.8298 228.198 30.1092 228.796 30.3886 229.342L30.5066 229.574C30.6669 229.896 30.6423 229.936 30.3886 230.175C30.0838 230.46 27.8753 230.2 27.3928 229.524C26.9107 228.848 26.0224 224.74 26.3523 223.83C26.6822 222.92 28.4594 216.94 29.1195 216.42C29.7793 215.9 32.1658 214.444 33.4857 211.168C34.5316 208.573 34.2074 204.575 34.6584 202.302C27.4084 202.232 18.2096 202.99 17.0187 192.732C16.6863 189.869 18.5334 187.525 21.0082 186.157ZM161.259 53.77L225.667 209.837C228.805 217.434 234.379 221.233 242.389 221.233H243.38V226.559H162.497V221.233C177.526 220.737 185.04 217.186 185.04 210.58C185.04 208.764 184.71 207.071 184.05 205.502L172.159 176.89H114.067L105.149 199.68C103.993 202.653 103.415 205.543 103.415 208.351C103.415 216.443 110.021 220.737 123.233 221.233V226.559L87.5469 226.568C89.8537 219.907 95.0088 206.796 95.4017 205.738C95.9083 204.37 96.6529 202.486 96.6402 201.101C96.6275 199.717 97.0438 197.663 96.2757 195.048C95.508 192.432 94.5944 190.192 94.4601 188.773C94.3266 187.353 94.7567 183.611 94.8999 181.222C95.0435 178.833 95.3181 174.595 95.6173 174.291C95.9165 173.987 95.8191 173.738 96.6402 173.682C97.4613 173.626 97.9235 173.457 99.1041 173.574C100.284 173.69 101.614 173.304 102.617 173.259C103.619 173.214 104.684 173.288 106.011 172.559C107.338 171.83 107.569 171.187 108.094 170.583C108.619 169.98 109.276 168.923 109.493 168.342C109.711 167.762 109.838 167.399 108.743 167.155C107.647 166.911 105.891 166.039 104.677 165.797C103.463 165.555 101.992 165.248 101.395 164.691C100.799 164.135 100.528 163.461 100.102 163.038C99.6749 162.615 99.4369 162.394 98.4696 162.071C97.5027 161.748 95.8497 160.758 95.2562 160.604C94.6623 160.449 93.9009 160.281 93.7379 159.951C93.5745 159.622 92.6009 157.435 92.1957 156.424C91.7902 155.413 91.0023 153.699 90.6987 153.735C90.3954 153.772 90.1078 156.431 89.4736 158.019C88.8394 159.607 87.9236 161.091 87.8882 161.907C87.8531 162.722 87.0634 164.008 86.4441 165.04C85.8252 166.071 83.7328 169.96 82.9162 172.761C82.0996 175.562 80.4295 181.696 79.3876 182.737C78.3453 183.777 72.4586 187.459 70.9082 188.524C70.4445 188.842 70.0846 189.093 69.7615 189.31L125.375 53.77H161.259ZM142.184 104.306L117.907 166.981H168.071L142.184 104.306Z" fill="#FFFEFE"/>
</svg>

<svg width="283" height="283" viewBox="0 0 283 283" fill="none" xmlns="http://www.w3.org/2000/svg"><path d="M21.008 186.157c3.577-1.977 4.97 1.248 2.652 1.905-5.125 1.452-3.517 8.46 1.608 9.81 3.678.97 13.775-.358 16.279-.988.5-.22 5.38-.42 10.406-.472 5.027-.052 13.028 2.106 15.16 2.418 2.133.312 5.61.936 7.768.962 2.16.026 5.7-1.352 5.765-1.365.063-.013.24-.208.66-.702.419-.494 1.802-1.47 1.903-1.456.102.012.254.363.33.987.076.624-.253 1.066-.253 1.066s1.967-.52 1.967-.21c0 .314-.52 1.224-.571 1.315-.05.09 2.032 1.69 2.552 2.43.52.742.318.703.47 1.574.152.87 1.485 3.08 1.536 3.302.05.22.013.26-.203.442-.216.182-.178.078-.432.325-.254.248-1.168 1.38-2.233 1.9-1.067.52-1.245.077-2.083-.417-.837-.494-4.747.13-5.483.702-.602.468-1.901 1.737-2.354 2.183l-.16.157s-.202.313-.456 1.51c-.254 1.194-.152 2.39.153 4.367.304 1.976 3.477 6.55 3.96 6.94.482.39 1.345.807 1.954 1.484.61.676.077 1.09-.583 1.3-.66.207-2.285-.13-2.792-.34-.508-.207-.762-1.662-2.437-2.858-1.676-1.196-4.316-3.38-4.722-4.473-.406-1.092-.762-4.107-.762-4.107s-.355.83-1.472 2.235c-1.118 1.404-3.707 3.744-3.707 4.733 0 .987.305 2.6.66 3.223.356.623.864.675 1.32.83l.232.078c.392.132.8.305 1.14.912.406.727-.051.936-.813.936-.761 0-1.828.364-3.148-.156s-3.757-4.94-4.315-6.033c-.558-1.09.66-3.12 1.169-4.056.506-.935 1.217-2.182 1.217-2.182s-4.67.052-7.108-.572c-2.438-.624-5.235-.832-5.235-.832s-.203 1.144-.61 2.808c-.406 1.664-2.335 3.588-2.538 4.212-.203.624 1.117 1.924 1.878 2.756.762.832 2.285 1.404 2.894 1.82.609.416 1.32 1.092.913 1.924-.406.832-.761.104-1.472.26-.71.156-2.487.416-3.705.156-1.219-.26-1.27-1.82-2.894-3.224-1.624-1.404-3.3-2.964-3.147-3.9.152-.936.355-5.148.304-5.408-.05-.26-2.132 1.456-4.366 2.548-2.233 1.092-6.802 2.21-7.082 2.964-.279.754-1.193 4.24-1.04 5.278.152 1.04.431 1.638.71 2.184l.119.232c.16.322.135.362-.118.6-.306.286-2.515.026-2.997-.65-.482-.676-1.37-4.784-1.04-5.694.33-.91 2.106-6.89 2.766-7.41.66-.52 3.046-1.976 4.366-5.252 1.046-2.595.721-6.593 1.172-8.866-7.25-.07-16.448.688-17.64-9.57-.332-2.863 1.515-5.207 3.99-6.575zM161.258 53.77l64.41 156.067c3.137 7.597 8.71 11.396 16.72 11.396h.992v5.326h-80.883v-5.327c15.03-.496 22.543-4.047 22.543-10.653 0-1.816-.33-3.51-.99-5.078l-11.89-28.612h-58.093l-8.918 22.79c-1.157 2.973-1.735 5.863-1.735 8.67 0 8.093 6.606 12.387 19.818 12.883v5.326l-35.686.008c2.307-6.66 7.462-19.772 7.855-20.83.506-1.368 1.25-3.252 1.238-4.637-.012-1.383.404-3.437-.364-6.052-.768-2.616-1.682-4.856-1.816-6.275-.133-1.42.297-5.162.44-7.55.144-2.39.418-6.628.717-6.932.3-.303.202-.552 1.023-.608.821-.056 1.284-.225 2.464-.108 1.18.116 2.51-.27 3.513-.315 1.002-.046 2.067.028 3.394-.7 1.328-.73 1.56-1.373 2.084-1.977.525-.603 1.182-1.66 1.4-2.24.217-.58.344-.944-.75-1.188-1.097-.244-2.853-1.116-4.067-1.358-1.214-.242-2.685-.55-3.282-1.106-.596-.555-.867-1.23-1.293-1.652-.427-.423-.665-.644-1.632-.967-.967-.322-2.62-1.312-3.214-1.466-.594-.155-1.355-.323-1.518-.653a93.695 93.695 0 0 1-1.542-3.526c-.406-1.01-1.194-2.725-1.497-2.69-.305.038-.592 2.697-1.226 4.285-.635 1.587-1.55 3.07-1.586 3.887-.035.815-.825 2.1-1.444 3.133-.619 1.03-2.711 4.92-3.528 7.72-.816 2.802-2.487 8.936-3.528 9.977-1.043 1.04-6.93 4.722-8.48 5.787-.463.318-.823.57-1.146.786l55.613-135.54h35.884zm-19.074 50.536-24.277 62.675h50.164l-25.886-62.674z" fill="#59443F"/></svg>
